X: 43
M: 6/8
L: 1/8
K: F
"F"FAc "Am"EAc | "Bb"DFd "C7"c2B | "F"ABc "Dm"FAc | "Gm"BGG "C7"G2A |
"F"FAc "Am"EAc | "Bb"DFd "C7"c2B | "Dm"ABc "E/C7"GAB |1 "F"AFF "A/F"F2A :|2 "F"AFF "C7"F2c ||
|: "F"fcA "A/F7"ecA | "Bb"dBG "C7"c2B | "F"ABc "Dm"FAc | "Gm"dGG "C7"G2c |
|1 "F"fcA "A/F7"ecA | "Bb"dBF "C7"c2B | "Dm"ABc "E/C7"GAB | "F"AFF "C7"F2c :|
[2 "F"FAc "Am"EAc | "Bb"DFd "C7"c2B | "Dm"ABc "E/C7"GAB | "F"AFF F3 |]
form Bearsden. I was asked to compose a tune for the dance and the title came from Charles and
Margaret's love of taking their dog for a walk.


